X: 501
T:Paddy Killoran's
S:B.Flaherty
Z:B.Black
M:4/4
L:1/8
R:reel
N:Posted to the woodenflute mailing list March 2002
K:G
D2 DE GABG|DGBG AE E2|D2 DE GABG|GE E2 cE E2|
DEDE GABG|dGBG A2 GE|D2 BD GABG|AGEF G2 z2||
G2 Bd edBd|edBG AE E2|G2 Bd edBe|dBAB G2 z2|
GABd edge|dcBG AE E2|g2-gd edge|dcBG AEGE||
<end>
<start>
